X:1
T:Zwölf Gesänge
T:Volkslied
T:7. Volkslied 
T:Louise Reichardt
T:Aus des Knaben Wunderhorn (eds. von Arnim and Brentano)
T:Zwölf Gesänge
T:OpenScore (CC0)
C:Louise Reichardt
Z:Aus des Knaben Wunderhorn (eds. von Arnim and Brentano)
Z:OpenScore (CC0)
%%score 1 { 2 | ( 3 4 ) }
L:1/8
Q:1/4=120
M:6/8
K:F
V:1 treble nm="Voice"
V:2 treble nm="Piano"
V:3 bass 
V:4 bass 
V:1
"^Bequem" C | A2 A A2 A | c3 A2 F | B2 B Bc d | c3 z2 c | c2 A cf d | c d B AB G | (F3 FG) E | %8
w: Zu|Kob- lenz auf der|Brü- cke, da|lag ein tie- * fer|Schnee, der|Schnee der ist * zer-|schmol- zen das Was- * ser|fliesst- * * in|
 F3 z2 :| %9
w: See.|
V:2
 C | [CFA]2 [CFA] [CFA]2 [CFA] | ([CFc]3 [CFA]2) F | [FB]2 [FB] [FB]cd | [Ac]3 z2 [Ac] | %5
 [Ac]2 [FA] [Ac]f[Bd] | [Ac][Bd] [FB] ABG | FCC FGE | F3 z2 :| %9
V:3
 z | F,2 F, F,2 F, | A,3 F,2 z | D2 D DCB, | F,3 z2 z | F,3 F,3 | F,2 D CDB, | C,3 C,3 | F,3 z2 :| %9
V:4
 x | x6 | x6 | x6 | x6 | x6 | x6 | A, x x A, B, G, | A,3 x2 :| %9

